X: 12356
T: Falls Of Foyers
R: reel
M: 4/4
K: Dmajor
d'||ddfd bafa|dfaf beeg|fdfa bafa|a2 eg fdd:|
a||d'afa bafa|d'afa bee2|d'afa bafa|a2 eg fdd2|
d'afa bafa|d'afa beec'|d'bc'a bgaf|g2 e/f/g fdd||

